app/assets/images/heroicons/mini/arrow-turn-right-up.svg

<svg width="20" height="20" viewBox="0 0 20 20" fill="none" xmlns="http://www.w3.org/2000/svg">
<path fill-rule="evenodd" clip-rule="evenodd" d="M3 16.25C3 15.8358 3.33579 15.5 3.75 15.5H11.25L11.25 4.56066L9.28033 6.53033C8.98744 6.82322 8.51256 6.82322 8.21967 6.53033C7.92678 6.23744 7.92678 5.76256 8.21967 5.46967L11.4697 2.21967C11.7626 1.92678 12.2374 1.92678 12.5303 2.21967L15.7803 5.46967C16.0732 5.76256 16.0732 6.23744 15.7803 6.53033C15.4874 6.82322 15.0126 6.82322 14.7197 6.53033L12.75 4.56066L12.75 16.25C12.75 16.6642 12.4142 17 12 17H3.75C3.33579 17 3 16.6642 3 16.25Z" fill="black"/>
</svg>

<svg xmlns="http://www.w3.org/2000/svg" viewBox="0 0 20 20" fill="currentColor" aria-hidden="true" data-slot="icon">
  <path fill-rule="evenodd" d="M3 16.25a.75.75 0 0 1 .75-.75h7.5V4.56L9.28 6.53a.75.75 0 0 1-1.06-1.06l3.25-3.25a.75.75 0 0 1 1.06 0l3.25 3.25a.75.75 0 0 1-1.06 1.06l-1.97-1.97v11.69A.75.75 0 0 1 12 17H3.75a.75.75 0 0 1-.75-.75Z" clip-rule="evenodd"/>
</svg>
